X: 7179
T: Ciaran Tourish
R: reel
M: 4/4
K: Dmajor
a2 fa g2 eg|fd d/d/d dAFA|BG G/G/G cA A/A/A|faaf g/f/e ce|
a2 fa g2 eg|fd d/d/d dAFA|BG G/G/G cA A/A/A|1 fage defg:|2 fage d2 ed||
|:caaf gfed|caaf g/g/g fg|ad d/d/d agfg|abaf gfed|
caaf gfed|caaf g/g/g fg|abaf gece|1 eddc d2 ed:|2 eddc defg||

